X:3428
T:La Polverita Fiera
O:england
C:L. E. McCullough
M:3/4
L:1/8
K:G
Bc | \
"G"dG Bd cB | "D"AD FA cB | "Em"G>A GF DB, | "C"C4 B,C |
"G"DB, DG BG | "C"c3 dcB | "Am"Ad cB AG | "D"A4 Bc |
"G"dG Bd cB | "D"AD FA cB | "Em"G>A GF DB, | "C"C4 BA |
"G"GD GB dB | "C"c3 dcB | "D"Ad cA FA | "G"G4 FG |
"D"AD cD BD | "D"AD cD BD | "D"A>B cA (3EFG | "D"A4 GF |
"Em"EG BG AB | "C"c3 dcB | "D"Ad cA FA | "G"G4 FG |
"D"AD cD BD | "D"AD cD BD | "D"A>B cA (3EFG | "D"A4 GF |
"Em"EG BG AB | "C"c3 dcB | "D"Ad cA FA | "G"G4 |]


